components/Common/Svg/svgs/multimediaChat.svg

<svg width="40" height="40" viewBox="0 0 40 40" fill="none" xmlns="http://www.w3.org/2000/svg">
<path fill-rule="evenodd" clip-rule="evenodd" d="M27.5 19.634C28.1667 20.0189 28.1667 20.9811 27.5 21.366L16.25 27.8612C15.5833 28.2461 14.75 27.765 14.75 26.9952L14.75 14.0048C14.75 13.235 15.5833 12.7539 16.25 13.1388L27.5 19.634ZM16.75 15.7369L25 20.5L16.75 25.2631L16.75 15.7369Z" fill="#161616"/>
<path fill-rule="evenodd" clip-rule="evenodd" d="M12.0791 6.17202C14.4904 4.79048 17.221 4.06327 20 4.0625C22.4355 4.06265 24.8386 4.62094 27.0247 5.69451C29.2108 6.76807 31.1219 8.32836 32.611 10.2556C34.1002 12.1827 35.1279 14.4256 35.6153 16.8118C36.1026 19.1981 36.0366 21.6643 35.4223 24.0211C34.8081 26.3778 33.6618 28.5625 32.0717 30.4073C30.4816 32.2521 28.4898 33.7079 26.2494 34.663C24.009 35.6181 21.5795 36.047 19.1474 35.9169C16.7154 35.7868 14.3455 35.101 12.2198 33.9123L7.42107 35.2833C7.04597 35.3904 6.64903 35.3954 6.27139 35.2975C5.89375 35.1997 5.54915 35.0026 5.27328 34.7268C4.99742 34.451 4.80033 34.1064 4.70244 33.7287C4.60455 33.3511 4.60941 32.9542 4.71654 32.5791L6.08763 27.7805C4.73209 25.3545 4.03427 22.6163 4.06337 19.8374C4.09248 17.0585 4.8475 14.3356 6.25355 11.9385C7.65961 9.54143 9.66786 7.55356 12.0791 6.17202ZM12.8234 32.0959C14.9953 33.3848 17.4745 34.0642 20 34.0625C23.1032 34.0621 26.1192 33.0354 28.5781 31.1423C31.037 29.2491 32.8008 26.5959 33.5946 23.5959C34.3884 20.5959 34.1678 17.4176 32.967 14.5561C31.7663 11.6946 29.6528 9.31054 26.9559 7.77534C24.259 6.24014 21.1301 5.64001 18.0566 6.06842C14.983 6.49683 12.1375 7.92973 9.9632 10.1439C7.78891 12.3581 6.40796 15.2292 6.03549 18.31C5.66301 21.3908 6.31992 24.5083 7.90388 27.1769C7.96916 27.2867 8.01133 27.4086 8.0278 27.5353C8.04427 27.6619 8.0347 27.7906 7.99966 27.9134L6.51951 33.0941C6.50417 33.1477 6.50345 33.2044 6.51743 33.2584C6.5314 33.3123 6.55956 33.3616 6.59898 33.401C6.6384 33.4404 6.68765 33.4686 6.74162 33.4825C6.79559 33.4965 6.85232 33.4958 6.90591 33.4805L12.0865 32.0003C12.2094 31.9652 12.3381 31.9556 12.4649 31.972C12.5916 31.9884 12.7136 32.0306 12.8234 32.0959Z" fill="#161616"/>
</svg>

<svg width="40" height="40" viewBox="0 0 40 40" fill="none" xmlns="http://www.w3.org/2000/svg"><path fill-rule="evenodd" clip-rule="evenodd" d="M27.5 19.634a1 1 0 0 1 0 1.732l-11.25 6.495a1 1 0 0 1-1.5-.866v-12.99a1 1 0 0 1 1.5-.866l11.25 6.495Zm-10.75-3.897L25 20.5l-8.25 4.763v-9.526Z" fill="#161616"/><path fill-rule="evenodd" clip-rule="evenodd" d="M12.08 6.172a15.938 15.938 0 1 1 .14 27.74L7.42 35.283a2.188 2.188 0 0 1-2.704-2.704l1.37-4.799A15.942 15.942 0 0 1 12.08 6.172Zm.743 25.924a14.064 14.064 0 1 0-4.92-4.919.938.938 0 0 1 .097.736l-1.48 5.181a.312.312 0 0 0 .386.386l5.18-1.48a.939.939 0 0 1 .737.096Z" fill="#161616"/></svg>
